assets/svgs/solid/paint-roller.svg

<svg xmlns="http://www.w3.org/2000/svg" viewBox="0 0 512 512"><!-- Font Awesome Free 5.15.4 by @fontawesome - https://fontawesome.com License - https://fontawesome.com/license/free (Icons: CC BY 4.0, Fonts: SIL OFL 1.1, Code: MIT License) --><path d="M416 128V32c0-17.67-14.33-32-32-32H32C14.33 0 0 14.33 0 32v96c0 17.67 14.33 32 32 32h352c17.67 0 32-14.33 32-32zm32-64v128c0 17.67-14.33 32-32 32H256c-35.35 0-64 28.65-64 64v32c-17.67 0-32 14.33-32 32v128c0 17.67 14.33 32 32 32h64c17.67 0 32-14.33 32-32V352c0-17.67-14.33-32-32-32v-32h160c53.02 0 96-42.98 96-96v-64c0-35.35-28.65-64-64-64z"/></svg>

<svg xmlns="http://www.w3.org/2000/svg" viewBox="0 0 512 512"><!--! Font Awesome Pro 6.0.0-beta3 by @fontawesome - https://fontawesome.com License - https://fontawesome.com/license (Commercial License) Copyright 2021 Fonticons, Inc. --><path d="M416 128V32c0-17.66-14.34-32-32-32H32C14.34 0 0 14.34 0 32v96c0 17.66 14.34 32 32 32h352C401.7 160 416 145.7 416 128zM448 64v128c0 17.66-14.34 32-32 32h-160C220.7 224 192 252.7 192 288v32c-17.66 0-32 14.34-32 32v128c0 17.66 14.34 32 32 32h64c17.66 0 32-14.34 32-32v-128c0-17.66-14.34-32-32-32V288h160c53.03 0 96-42.97 96-96V128C512 92.66 483.3 64 448 64z"/></svg>
